packages/core/src/svgs/lixx.svg

<svg width="24" height="24" viewBox="0 0 24 24" fill="none" xmlns="http://www.w3.org/2000/svg">
<g clip-path="url(#clip0_31_13259)">
<path d="M0 0H24V24H0V0Z" fill="#F0F3FA"/>
<path d="M11.1431 7.49143L11.5716 6L12.0002 7.49143L11.5716 8.57143L11.1431 7.49143Z" fill="#08883E"/>
<path d="M20.5715 8.57129H18.8101L17.1429 11.2327L15.4758 8.57129H13.7144L16.2601 12.6427L13.7144 16.7141H15.4758L17.1429 14.0527L18.8101 16.7141H20.5715L18.0258 12.6427L20.5715 8.57129Z" fill="#E47A04"/>
<path d="M9.85693 7.28564C10.1569 7.31136 10.8255 7.60707 11.1426 8.57136C10.9455 8.44707 10.0541 8.36564 9.85693 7.28564ZM13.2855 7.28564C12.9855 7.31136 12.3169 7.60707 11.9998 8.57136C12.1969 8.44707 13.0884 8.36564 13.2855 7.28564Z" fill="#08883E"/>
<path d="M5.57122 8.57129H3.85693V16.7141H9.42836V14.9999H5.57122V8.57129ZM10.0926 11.3013L9.89122 10.6799C9.82693 10.487 9.85265 10.277 9.96408 10.1013C10.1655 9.77557 10.4184 9.35986 10.5684 9.10272C10.6198 9.017 10.7312 8.97843 10.8255 9.01272C11.1469 9.11558 11.4684 9.167 11.5712 9.17986C11.6698 9.167 11.9955 9.11558 12.3126 9.00843C12.4112 8.97843 12.5269 9.017 12.5698 9.10272L12.9641 9.74557L11.6184 10.0027L13.2684 10.3241C13.2941 10.4399 13.2898 10.5641 13.2512 10.6799L12.4112 13.2684L11.3269 13.4827L12.2826 13.6627L11.5712 15.857L10.3069 11.9613L11.9141 11.6527L10.0926 11.3013Z" fill="#E47A04"/>
<path d="M9.85693 16.4999L11.5712 16.2856L13.2855 16.4999L11.5712 16.7142L9.85693 16.4999Z" fill="#B3B3B3"/>
</g>
<defs>
<clipPath id="clip0_31_13259">
<rect width="24" height="24" fill="white"/>
</clipPath>
</defs>
</svg>

<svg xmlns="http://www.w3.org/2000/svg" width="24" height="24" fill="none" viewBox="0 0 24 24"><g clip-path="url(#a)"><path fill="#F0F3FA" d="M0 0h24v24H0z"/><path fill="#08883E" d="M11.143 7.491 11.572 6 12 7.491l-.428 1.08z"/><path fill="#E47A04" d="M20.572 8.571H18.81l-1.667 2.662-1.667-2.662h-1.762l2.546 4.072-2.546 4.071h1.762l1.667-2.661 1.667 2.661h1.762l-2.546-4.071z"/><path fill="#08883E" d="M9.857 7.286c.3.025.969.321 1.286 1.285-.198-.124-1.089-.205-1.286-1.285m3.429 0c-.3.025-.97.321-1.286 1.285.197-.124 1.088-.205 1.286-1.285"/><path fill="#E47A04" d="M5.571 8.571H3.857v8.143h5.571V15H5.571zm4.522 2.73-.202-.621a.68.68 0 0 1 .073-.579 53 53 0 0 0 .604-.998.22.22 0 0 1 .258-.09c.32.103.642.154.745.167.099-.013.425-.064.742-.172.098-.03.214.009.257.095l.394.643-1.346.257 1.65.321a.67.67 0 0 1-.017.356l-.84 2.588-1.084.215.956.18-.712 2.194-1.264-3.896 1.607-.308z"/><path fill="#B3B3B3" d="m9.857 16.5 1.714-.214 1.715.214-1.715.214z"/></g><defs><clipPath id="a"><path fill="#fff" d="M0 0h24v24H0z"/></clipPath></defs></svg>
